src/_images/logo-farma.svg

<svg width="36" height="28" viewBox="0 0 36 28" fill="none" xmlns="http://www.w3.org/2000/svg">
<path d="M2.0625 2.0625C3.4375 0.6875 5.08333 0 7 0C8.91667 0 10.5625 0.6875 11.9375 2.0625C13.3125 3.4375 14 5.08333 14 7V21C14 22.9167 13.3125 24.5625 11.9375 25.9375C10.5625 27.3125 8.91667 28 7 28C5.08333 28 3.4375 27.3125 2.0625 25.9375C0.6875 24.5625 0 22.9167 0 21V7C0 5.08333 0.6875 3.4375 2.0625 2.0625ZM10 14V7C10 6.16667 9.70833 5.45833 9.125 4.875C8.54167 4.29167 7.83333 4 7 4C6.16667 4 5.45833 4.29167 4.875 4.875C4.29167 5.45833 4 6.16667 4 7V14H10ZM18.75 12.125L31.875 25.3125C32.1667 25.6042 32.1667 25.8542 31.875 26.0625C29.9167 27.5208 27.7083 28.1458 25.25 27.9375C22.7917 27.7708 20.6875 26.8333 18.9375 25.125C17.1875 23.375 16.2292 21.2708 16.0625 18.8125C15.8958 16.3542 16.5208 14.1458 17.9375 12.1875C18.1875 11.8958 18.4583 11.875 18.75 12.125ZM26.8125 8.0625C29.2708 8.22917 31.3542 9.1875 33.0625 10.9375C34.8125 12.6875 35.7708 14.7917 35.9375 17.25C36.1458 19.7083 35.5208 21.9167 34.0625 23.875C33.8542 24.1667 33.6042 24.1667 33.3125 23.875L20.125 10.75C19.875 10.4583 19.8958 10.1875 20.1875 9.9375C22.1458 8.52083 24.3542 7.89583 26.8125 8.0625Z" fill="#F2F2F2"/>
</svg>

<svg width="36" height="28" fill="none" xmlns="http://www.w3.org/2000/svg"><path d="M2.063 2.063C3.437.687 5.082 0 7 0c1.917 0 3.563.688 4.938 2.063C13.312 3.437 14 5.082 14 7v14c0 1.917-.688 3.563-2.063 4.938C10.563 27.313 8.918 28 7 28c-1.917 0-3.563-.688-4.938-2.063C.688 24.563 0 22.918 0 21V7c0-1.917.688-3.563 2.063-4.938zM10 14V7c0-.833-.292-1.542-.875-2.125A2.893 2.893 0 0 0 7 4c-.833 0-1.542.292-2.125.875A2.893 2.893 0 0 0 4 7v7h6zm8.75-1.875 13.125 13.188c.292.291.292.541 0 .75-1.958 1.458-4.167 2.083-6.625 1.875-2.458-.167-4.563-1.105-6.313-2.813-1.75-1.75-2.708-3.854-2.875-6.313-.166-2.458.459-4.666 1.875-6.625.25-.291.521-.312.813-.062zm8.063-4.063c2.458.167 4.541 1.126 6.25 2.876 1.75 1.75 2.708 3.854 2.874 6.312.209 2.458-.416 4.667-1.874 6.625-.209.292-.459.292-.75 0L20.124 10.75c-.25-.292-.23-.563.063-.813 1.958-1.416 4.166-2.041 6.625-1.874z" fill="#F2F2F2"/></svg>
